;FLAVOR:RepRap
;TIME:5882
;Filament used: 3.06816m
;Layer height: 0.1
;Generated with Cura_SteamEngine 2.5.0
M190 S60
M104 S200
M109 S200
G21 ;metric values
G90 ;absolute positioning
M82 ;set extruder to absolute mode
M107 ;start with the fan off
G28 X0 Y0 ;move X/Y to min endstops
G28 Z0 ;move Z to min endstops
G1 Z15.0 F9000 ;move the platform down 15mm
G92 E0 ;zero the extruded length
G1 F200 E3 ;extrude 3mm of feed stock
G92 E0 ;zero the extruded length again
G1 F9000
;Put printing message on LCD screen
M117 Printing...
;LAYER_COUNT:63
;LAYER:0
M107
G0 F3600 X85.559 Y58.377 Z0.3
;TYPE:SKIRT
G1 F1800 X85.85 Y57.964 E0.02521
G1 X86.203 Y57.602 E0.05043
G1 X86.609 Y57.3 E0.07568
G1 X87.057 Y57.066 E0.10089
G1 X87.537 Y56.906 E0.12613
G1 X88.035 Y56.823 E0.15132
G1 X88.31 Y56.811 E0.16506
G1 X128.094 Y56.811 E2.14989
G1 X128.598 Y56.851 E2.17511
G1 X129.089 Y56.97 E2.20032
G1 X129.556 Y57.164 E2.22555
G1 X129.986 Y57.43 E2.25077
G1 X130.369 Y57.76 E2.27599
G1 X130.695 Y58.147 E2.30124
G1 X130.878 Y58.434 E2.31822
G1 X131.51 Y59.55 E2.38221
G1 X131.783 Y60.179 E2.41641
G1 X132 Y60.879 E2.45298
G1 X132.097 Y61.285 E2.4738
G1 X132.304 Y62.49 E2.5348
G1 X132.339 Y62.77 E2.54888
G1 X132.739 Y67.635 E2.79241
G1 X132.75 Y67.925 E2.80689
G1 X132.738 Y69.292 E2.8751
G1 X132.727 Y69.529 E2.88693
G1 X132.609 Y70.949 E2.95802
G1 X132.571 Y71.242 E2.97276
G1 X132.182 Y73.437 E3.08398
G1 X132.121 Y73.712 E3.09803
G1 X130.478 Y79.806 E3.41292
G1 X130.43 Y79.966 E3.42125
G1 X127.644 Y88.497 E3.86898
G1 X126.087 Y93.825 E4.14592
G1 X124.843 Y99.191 E4.42073
G1 X124.352 Y101.811 E4.55372
G1 X123.57 Y107.249 E4.82781
G1 X123.098 Y112.699 E5.10073
G1 X122.934 Y118.187 E5.37465
G1 X123.08 Y123.686 E5.64909
G1 X123.267 Y126.367 E5.78317
G1 X123.795 Y131.507 E6.04096
G1 X123.784 Y132.256 E6.07833
G1 X123.723 Y132.714 E6.10138
G1 X123.578 Y133.329 E6.1329
G1 X123.291 Y134.167 E6.1771
G1 X123.09 Y134.631 E6.20232
G1 X122.945 Y134.877 E6.21657
G1 X122.404 Y135.707 E6.266
G1 X122.095 Y136.108 E6.29126
G1 X121.718 Y136.462 E6.31706
G1 X117.241 Y140.031 E6.6027
G1 X115.52 Y141.504 E6.71572
G1 X115.498 Y141.523 E6.71717
G1 X114.413 Y142.435 E6.78788
G1 X114.002 Y142.728 E6.81306
G1 X113.549 Y142.954 E6.83832
G1 X113.066 Y143.105 E6.86357
G1 X112.354 Y143.185 E6.89931
G1 X83.239 Y143.189 E8.35187
G1 X82.735 Y143.149 E8.37709
G1 X82.244 Y143.03 E8.4023
G1 X81.867 Y142.88 E8.42254
G1 X75.637 Y139.923 E8.76659
G1 X69.439 Y137.47 E9.09914
G1 X68.985 Y137.248 E9.12436
G1 X68.572 Y136.956 E9.14959
G1 X68.21 Y136.604 E9.17478
G1 X67.908 Y136.198 E9.20003
G1 X67.673 Y135.75 E9.22527
G1 X67.513 Y135.271 E9.25046
G1 X67.461 Y135.021 E9.2632
G1 X67.325 Y134.205 E9.30447
G1 X67.283 Y133.796 E9.32499
G1 X67.25 Y132.895 E9.36997
G1 X67.25 Y132.666 E9.38139
G1 X67.471 Y126.367 E9.69584
G1 X67.537 Y125.824 E9.72313
G1 X72.323 Y102.95 E10.88903
G1 X72.465 Y102.465 E10.91425
G1 X72.581 Y102.198 E10.92877
G1 X73.526 Y100.269 E11.03594
G1 X75.752 Y95.239 E11.31036
G1 X77.686 Y90.11 E11.58383
G1 X79.318 Y84.905 E11.85598
G1 X80.672 Y79.539 E12.13208
G1 X85.187 Y59.314 E13.16594
G1 X85.336 Y58.831 E13.19116
G1 X85.559 Y58.377 E13.2164
G1 F1500 E6.7164
G0 F3600 X87.544 Y60.339
G0 X88.793 Y60.616
G0 X88.843 Y60.679
G0 X88.781 Y60.601
;TYPE:WALL-INNER
G1 F1500 E13.2164
G1 F1800 X127.797 Y60.601 E15.16291
G1 X127.883 Y60.733 E15.17077
G1 X128.005 Y60.952 E15.18328
G1 X128.092 Y61.136 E15.19343
G1 X128.191 Y61.386 E15.20685
G1 X128.281 Y61.649 E15.22072
G1 X128.349 Y61.891 E15.23326
G1 X128.411 Y62.161 E15.24708
G1 X128.476 Y62.492 E15.26391
G1 X128.522 Y62.783 E15.27861
G1 X128.598 Y63.403 E15.30977
G1 X128.918 Y67.09 E15.49441
G1 X128.952 Y67.651 E15.52245
G1 X128.97 Y68.277 E15.55369
G1 X128.965 Y68.932 E15.58637
G1 X128.934 Y69.615 E15.62048
G1 X128.874 Y70.309 E15.65523
G1 X128.79 Y70.98 E15.68897
G1 X128.674 Y71.679 E15.72432
G1 X128.541 Y72.348 E15.75835
G1 X128.384 Y73.033 E15.79341
G1 X128.02 Y74.459 E15.86684
G1 X127.378 Y76.818 E15.98881
G1 X126.891 Y78.543 E16.07823
G1 X126.4 Y80.196 E16.16426
G1 X126.135 Y81.054 E16.20906
G1 X125.656 Y82.545 E16.28719
G1 X125.13 Y84.109 E16.36952
G1 X124.631 Y85.519 E16.44414
G1 X124.391 Y86.156 E16.4781
G1 X123.883 Y87.415 E16.54583
G1 X123.345 Y88.698 E16.61524
G1 X123.055 Y89.416 E16.65387
G1 X122.648 Y90.484 E16.71089
G1 X122.358 Y91.305 E16.75433
G1 X121.348 Y94.264 E16.91032
G1 X120.997 Y95.191 E16.95977
G1 X120.647 Y96.038 E17.0055
G1 X120.278 Y96.853 E17.05013
G1 X119.876 Y97.669 E17.09551
G1 X118.525 Y100.243 E17.24054
G1 X118.083 Y101.124 E17.28972
G1 X117.619 Y102.107 E17.34395
G1 X117.19 Y103.084 E17.39718
G1 X116.767 Y104.108 E17.45246
G1 X115.843 Y106.44 E17.5776
G1 X115.507 Y107.254 E17.62154
G1 X115.19 Y107.964 E17.66033
G1 X114.874 Y108.612 E17.6963
G1 X114.141 Y110.017 E17.77536
G1 X113.85 Y110.649 E17.81007
G1 X113.581 Y111.344 E17.84725
G1 X113.453 Y111.717 E17.86693
G1 X113.331 Y112.104 E17.88717
G1 X113.112 Y112.889 E17.92783
G1 X112.92 Y113.674 E17.96815
G1 X112.826 Y114.095 E17.98967
G1 X112.633 Y115.116 E18.04151
G1 X112.539 Y115.748 E18.07339
G1 X112.508 Y116.056 E18.08883
G1 X112.487 Y116.354 E18.10373
G1 X112.478 Y116.629 E18.11746
G1 X112.484 Y117.244 E18.14814
G1 X112.532 Y117.917 E18.18181
G1 X112.605 Y118.594 E18.21578
G1 X112.727 Y119.449 E18.25887
G1 X112.802 Y119.892 E18.28128
G1 X112.949 Y120.654 E18.32
G1 X113.148 Y121.488 E18.36278
G1 X113.367 Y122.242 E18.40195
G1 X113.614 Y122.934 E18.4386
G1 X113.749 Y123.264 E18.45639
G1 X113.891 Y123.579 E18.47363
G1 X114.171 Y124.14 E18.50491
G1 X114.468 Y124.677 E18.53553
G1 X114.78 Y125.203 E18.56604
G1 X115.126 Y125.752 E18.59841
G1 X115.492 Y126.296 E18.63113
G1 X115.854 Y126.794 E18.66184
G1 X116.266 Y127.312 E18.69486
G1 X116.648 Y127.747 E18.72374
G1 X117.029 Y128.146 E18.75127
G1 X117.405 Y128.505 E18.7772
G1 X117.774 Y128.84 E18.80207
G1 X118.554 Y129.522 E18.85376
G1 X118.914 Y129.853 E18.87816
G1 X119.306 Y130.253 E18.9061
G1 X119.459 Y130.431 E18.91781
G1 X119.631 Y130.654 E18.93186
G1 X119.747 Y130.832 E18.94246
G1 X119.857 Y131.035 E18.95398
G1 X119.934 Y131.216 E18.96379
G1 X119.984 Y131.395 E18.97307
G1 X120.015 Y131.573 E18.98208
G1 X120.023 Y131.757 E18.99127
G1 X120.012 Y131.94 E19.00041
G1 X119.983 Y132.127 E19.00986
G1 X119.937 Y132.319 E19.01971
G1 X119.874 Y132.519 E19.03017
G1 X119.733 Y132.876 E19.04932
G1 X119.654 Y133.037 E19.05826
G1 X119.563 Y133.193 E19.06727
G1 X119.455 Y133.354 E19.07695
G1 X119.325 Y133.517 E19.08735
G1 X119.165 Y133.688 E19.09903
G1 X119.005 Y133.833 E19.1098
G1 X118.8 Y133.997 E19.1229
G1 X118.557 Y134.17 E19.13778
G1 X118.31 Y134.329 E19.15244
G1 X118.016 Y134.504 E19.16951
G1 X117.408 Y134.84 E19.20416
G1 X116.522 Y135.299 E19.25395
G1 X116.035 Y135.565 E19.28163
G1 X115.753 Y135.733 E19.29801
G1 X115.507 Y135.894 E19.31268
G1 X115.273 Y136.061 E19.32702
G1 X115.045 Y136.242 E19.34154
G1 X114.821 Y136.439 E19.35642
G1 X114.404 Y136.852 E19.38571
G1 X114.167 Y137.115 E19.40337
G1 X114.153 Y137.131 E19.40443
G1 X114.021 Y137.277 E19.41425
G1 X113.843 Y137.487 E19.42798
G1 X113.526 Y137.859 E19.45237
G1 X113.208 Y138.232 E19.47682
G1 X112.922 Y138.568 E19.49883
G1 X112.885 Y138.609 E19.50159
G1 X112.568 Y138.961 E19.52522
G1 X112.549 Y138.981 E19.5266
G1 X112.402 Y139.131 E19.53708
G1 X112.118 Y139.399 E19.55656
G1 X111.898 Y139.399 E19.56753
G1 X111.471 Y139.399 E19.58884
G1 X111.154 Y139.399 E19.60465
G1 X111.471 Y139.259
G1 X111.898 Y139.021 E19.62124
G1 X112.19 Y138.822 E19.63864
G1 X112.305 Y138.744 E19.64365
G1 X112.353 Y138.704 E19.64611
G1 X112.683 Y138.429 E19.66206
G1 X112.732 Y138.38 E19.66395
G1 X113.03 Y138.082 E19.67688
G1 X113.343 Y137.705 E19.69126
G1 X113.621 Y137.3 E19.7075
G1 X113.724 Y137.113 E19.71496
G1 X113.86 Y136.869 E19.72789
G1 X113.868 Y136.849 E19.72895
G1 X114.059 Y136.42 E19.75238
G1 X114.215 Y135.955 E19.77685
G1 X114.328 Y135.476 E19.80141
G1 X114.395 Y134.99 E19.82588
G1 X114.417 Y134.499 E19.8504
G1 X114.395 Y134.009 E19.87487
G1 X114.328 Y133.523 E19.89935
G1 X114.215 Y133.044 E19.9239
G1 X114.059 Y132.579 E19.94837
G1 X113.86 Y132.13 E19.97287
G1 X113.621 Y131.699 E19.99746
G1 X113.343 Y131.294 E20.02197
G1 X113.03 Y130.917 E20.04641
G1 X112.683 Y130.57 E20.0709
G1 X112.305 Y130.255 E20.09545
G1 X112.194 Y130.179 E20.10216
G1 X111.898 Y129.978 E20.12001
G1 X111.577 Y129.799 E20.13834
G1 X111.898 Y129.799
G1 X112.256 Y129.799 E20.15149
G1 X113.833 Y129.799 E20.23017
G1 X114.702 Y129.004 E20.28893
G1 X114.849 Y128.869 E20.29889
G1 X114.714 Y128.722 E20.30532
G1 X111.751 Y125.496 E20.52385
G1 X109.879 Y114.789 E21.06612
G1 X125.141 Y74.488 E23.2161
G1 X125.884 Y63.614 E23.75987
G1 X125.898 Y63.401 E23.77052
G1 X125.685 Y63.401 E23.77726
G1 X125.684 Y63.401 E23.77731
G1 X91.027 Y63.401 E25.50636
G1 X85.393 Y88.712 E26.80003
G1 X78.781 Y104.248 E27.6424
G1 X74.001 Y127.23 E28.81352
G1 X74.001 Y133.899 E29.14624
G1 X71.109 Y133.899 E29.29052
G1 X71.053 Y133.497 E29.31077
G1 X71.029 Y133.075 E29.33186
G1 X71.034 Y132.915 E29.33984
G1 X71.05 Y132.776 E29.34682
G1 X71.085 Y132.644 E29.35364
G1 X71.149 Y132.554 E29.35915
G1 X71.458 Y132.292 E29.37936
G1 X71.677 Y132.063 E29.39517
G1 X71.879 Y131.784 E29.41235
G1 X72.046 Y131.478 E29.42974
G1 X72.175 Y131.18 E29.44594
G1 X72.283 Y130.862 E29.4627
G1 X72.357 Y130.542 E29.47908
G1 X72.395 Y130.194 E29.49655
G1 X72.394 Y129.854 E29.51351
G1 X72.355 Y129.515 E29.53054
G1 X72.284 Y129.174 E29.54791
G1 X72.188 Y128.857 E29.56444
G1 X72.073 Y128.564 E29.58014
G1 X71.941 Y128.301 E29.59482
G1 X71.805 Y128.065 E29.60841
G1 X71.418 Y127.459 E29.64428
G1 X71.337 Y127.317 E29.65244
G1 X71.259 Y127.151 E29.66159
G1 X71.217 Y127.027 E29.66812
G1 X71.195 Y126.886 E29.67524
G1 X71.214 Y126.755 E29.68185
G1 X71.278 Y126.561 E29.69204
G1 X75.988 Y103.929 E30.84535
G1 X76.287 Y103.66 E30.86541
G1 X76.726 Y103.243 E30.89562
G1 X77.183 Y102.782 E30.928
G1 X77.593 Y102.34 E30.95808
G1 X77.991 Y101.886 E30.9882
G1 X78.396 Y101.394 E31.02
G1 X78.771 Y100.908 E31.05062
G1 X79.127 Y100.414 E31.081
G1 X79.455 Y99.92 E31.11058
G1 X79.75 Y99.426 E31.13929
G1 X79.99 Y98.963 E31.16531
G1 X80.164 Y98.56 E31.18721
G1 X80.302 Y98.19 E31.20691
G1 X80.612 Y97.292 E31.2543
G1 X88.781 Y60.601 E33.12965
G1 F1500 E26.62965
G0 F3600 X88.843 Y60.679
G0 X85.374 Y88.706
G0 X86.556 Y89.208
G0 X100.986 Y129.691
G0 X101.436 Y130.873
G0 X101.473 Y130.859
G0 X104.272 Y129.897
G0 X104.254 Y129.799
G1 F1500 E33.12965
G1 F1800 X105.944 Y129.799 E33.21396
G1 X106.302 Y129.799 E33.23182
G1 X106.624 Y129.799 E33.24789
G1 X106.302 Y129.978
G1 X106.006 Y130.179 E33.26101
G1 X105.895 Y130.255 E33.26772
G1 X105.517 Y130.57 E33.29227
G1 X105.17 Y130.917 E33.31676
G1 X104.856 Y131.295 E33.34127
G1 X104.579 Y131.701 E33.36579
G1 X104.341 Y132.129 E33.39022
G1 X104.142 Y132.579 E33.41477
G1 X103.985 Y133.044 E33.43926
G1 X103.872 Y133.523 E33.46381
G1 X103.805 Y134.009 E33.48829
G1 X103.783 Y134.499 E33.51276
G1 X103.805 Y134.99 E33.53728
G1 X103.872 Y135.476 E33.56175
G1 X103.985 Y135.955 E33.58631
G1 X104.142 Y136.42 E33.61079
G1 X104.341 Y136.87 E33.63534
G1 X104.579 Y137.298 E33.65977
G1 X104.856 Y137.704 E33.68429
G1 X105.17 Y138.082 E33.70881
G1 X105.517 Y138.429 E33.73329
G1 X105.895 Y138.744 E33.75784
G1 X106.274 Y139.002 E33.78072
G1 X106.302 Y139.021 E33.7824
G1 X106.73 Y139.259 E33.80684
G1 X107.046 Y139.399 E33.82408
G1 X106.73 Y139.399
G1 X106.302 Y139.399 E33.83762
G1 X106.267 Y139.399 E33.83933
G1 X83.83 Y139.399 E34.95871
G1 X83.83 Y135.099 E35.17324
G1 X90.341 Y135.099 E35.49808
G1 X104.254 Y129.799 E36.24086
G0 F3600 X104.18 Y129.399
;TYPE:WALL-OUTER
G1 F1800 X107.666 Y129.399 E36.41477
G1 X107.754 Y129.399 E36.41916
G1 X108.196 Y129.399 E36.44121
G1 X108.647 Y129.399 E36.46372
G1 X109.1 Y129.399 E36.48632
G1 X109.553 Y129.399 E36.50892
G1 X110.004 Y129.399 E36.53142
G1 X110.446 Y129.399 E36.55347
G1 X110.534 Y129.399 E36.55786
G1 X113.678 Y129.399 E36.71471
G1 X114.136 Y128.98 E36.74568
G1 X114.283 Y128.845 E36.75564
G1 X114.148 Y128.698 E36.76207
G1 X111.377 Y125.681 E36.96644
G1 X109.466 Y114.75 E37.52006
G1 X124.746 Y74.402 E39.67254
G1 X125.456 Y64.014 E40.19201
G1 X125.47 Y63.801 E40.20266
G1 X125.257 Y63.801 E40.20941
G1 X125.256 Y63.801 E40.20946
G1 X91.348 Y63.801 E41.90114
G1 X85.774 Y88.837 E43.18077
G1 X79.165 Y104.368 E44.02285
G1 X74.401 Y127.271 E45.18995
G1 X74.401 Y134.299 E45.54057
G1 X70.768 Y134.299 E45.72183
G1 X70.69 Y133.815 E45.74628
G1 X70.655 Y133.537 E45.76026
G1 X70.637 Y133.295 E45.77237
G1 X70.629 Y133.078 E45.7832
G1 X70.635 Y132.884 E45.79289
G1 X70.653 Y132.722 E45.80102
G1 X70.681 Y132.589 E45.8078
G1 X70.716 Y132.488 E45.81313
G1 X70.758 Y132.403 E45.81786
G1 X70.862 Y132.273 E45.82617
G1 X71.183 Y132 E45.84719
G1 X71.369 Y131.806 E45.8606
G1 X71.54 Y131.57 E45.87514
G1 X71.686 Y131.302 E45.89037
G1 X71.802 Y131.036 E45.90484
G1 X71.898 Y130.753 E45.91975
G1 X71.962 Y130.475 E45.93398
G1 X71.995 Y130.173 E45.94914
G1 X71.994 Y129.877 E45.96391
G1 X71.96 Y129.579 E45.97887
G1 X71.896 Y129.273 E45.99447
G1 X71.81 Y128.988 E46.00932
G1 X71.707 Y128.727 E46.02332
G1 X71.589 Y128.491 E46.03648
G1 X71.463 Y128.273 E46.04905
G1 X71.081 Y127.674 E46.08449
G1 X70.977 Y127.492 E46.09495
G1 X70.887 Y127.301 E46.10548
G1 X70.83 Y127.133 E46.11433
G1 X70.8 Y126.97 E46.1226
G1 X70.795 Y126.888 E46.1267
G1 X70.799 Y126.814 E46.1304
G1 X70.826 Y126.653 E46.13854
G1 X70.891 Y126.457 E46.14884
G1 X75.623 Y103.719 E47.30755
G1 X76.015 Y103.366 E47.33387
G1 X76.446 Y102.957 E47.36351
G1 X76.894 Y102.505 E47.39526
G1 X77.296 Y102.072 E47.42474
G1 X77.686 Y101.627 E47.45426
G1 X78.083 Y101.145 E47.48542
G1 X78.45 Y100.669 E47.5154
G1 X78.798 Y100.186 E47.5451
G1 X79.117 Y99.707 E47.57381
G1 X79.4 Y99.232 E47.6014
G1 X79.628 Y98.791 E47.62617
G1 X79.793 Y98.411 E47.64684
G1 X79.925 Y98.055 E47.66578
G1 X80.227 Y97.183 E47.71182
G1 X88.461 Y60.201 E49.60204
G1 X128.001 Y60.201 E51.57469
G1 X128.094 Y60.323 E51.58235
G1 X128.224 Y60.524 E51.59429
G1 X128.362 Y60.771 E51.60841
G1 X128.464 Y60.988 E51.62037
G1 X128.567 Y61.247 E51.63427
G1 X128.66 Y61.52 E51.64866
G1 X128.739 Y61.801 E51.66323
G1 X128.804 Y62.084 E51.67771
G1 X128.869 Y62.415 E51.69454
G1 X128.919 Y62.734 E51.71065
G1 X128.997 Y63.368 E51.74252
G1 X129.317 Y67.055 E51.92716
G1 X129.352 Y67.64 E51.95639
G1 X129.37 Y68.28 E51.98834
G1 X129.365 Y68.95 E52.02176
G1 X129.333 Y69.649 E52.05667
G1 X129.273 Y70.343 E52.09143
G1 X129.185 Y71.045 E52.12672
G1 X129.069 Y71.744 E52.16207
G1 X128.931 Y72.437 E52.19733
G1 X128.772 Y73.132 E52.2329
G1 X128.406 Y74.564 E52.30663
G1 X127.763 Y76.927 E52.42881
G1 X127.276 Y78.652 E52.51824
G1 X126.782 Y80.314 E52.60474
G1 X126.516 Y81.176 E52.64975
G1 X126.035 Y82.673 E52.72819
G1 X125.507 Y84.242 E52.81078
G1 X125.005 Y85.66 E52.88583
G1 X124.762 Y86.306 E52.92026
G1 X124.252 Y87.57 E52.98826
G1 X123.715 Y88.85 E53.05752
G1 X123.427 Y89.562 E53.09583
G1 X123.024 Y90.622 E53.15241
G1 X122.736 Y91.436 E53.19549
G1 X121.727 Y94.393 E53.35137
G1 X121.367 Y95.344 E53.4021
G1 X121.017 Y96.191 E53.44782
G1 X120.637 Y97.03 E53.49377
G1 X120.235 Y97.846 E53.53915
G1 X118.881 Y100.426 E53.68452
G1 X118.443 Y101.299 E53.73325
G1 X117.983 Y102.273 E53.78699
G1 X117.558 Y103.241 E53.83973
G1 X117.138 Y104.258 E53.89463
G1 X116.213 Y106.593 E54.01993
G1 X115.877 Y107.407 E54.06386
G1 X115.55 Y108.139 E54.10386
G1 X115.229 Y108.797 E54.14038
G1 X114.5 Y110.193 E54.21896
G1 X114.219 Y110.805 E54.25255
G1 X113.957 Y111.481 E54.28872
G1 X113.833 Y111.842 E54.30777
G1 X113.715 Y112.218 E54.32743
G1 X113.499 Y112.99 E54.36742
